src/dsmComponents/Icons/people-1-12px.svg

<?xml version="1.0" encoding="UTF-8"?>
<svg width="12px" height="8px" viewBox="0 0 12 8" version="1.1" xmlns="http://www.w3.org/2000/svg" xmlns:xlink="http://www.w3.org/1999/xlink">
    <!-- Generator: Sketch 59.1 (86144) - https://sketch.com -->
    <title>people-1-12px</title>
    <desc>Created with Sketch.</desc>
    <defs>
        <path d="M8.625,4.5 C9.96375,4.5 10.90425,5.031 11.4465,5.4615 C11.80125,5.74275 12,6.174 12,6.627 L12,6.627 L12,7.5 L8.25,7.5 L8.25,6.627 C8.25,5.877 7.96875,5.18175 7.48575,4.64175 C7.82775,4.55625 8.20425,4.5 8.625,4.5 Z M3.375,4.5 C4.71375,4.5 5.65425,5.031 6.1965,5.4615 C6.55125,5.74275 6.75,6.174 6.75,6.627 L6.75,6.627 L6.75,7.5 L0,7.5 L0,6.627 C0,6.174 0.19875,5.74275 0.5535,5.4615 C1.09575,5.031 2.03625,4.5 3.375,4.5 Z M3.375,0 C4.41053391,0 5.25,0.839466094 5.25,1.875 C5.25,2.91053391 4.41053391,3.75 3.375,3.75 C2.33946609,3.75 1.5,2.91053391 1.5,1.875 C1.5,0.839466094 2.33946609,0 3.375,0 Z M8.625,0 C9.66053391,0 10.5,0.839466094 10.5,1.875 C10.5,2.91053391 9.66053391,3.75 8.625,3.75 C7.58946609,3.75 6.75,2.91053391 6.75,1.875 C6.75,0.839466094 7.58946609,0 8.625,0 Z" id="path-1"></path>
    </defs>
    <g id="Final" stroke="none" stroke-width="1" fill="none" fill-rule="evenodd">
        <g id="All-Nucleo-Icons" transform="translate(-174.000000, -5151.000000)">
            <g id="Solo/Nucleo/12px/people-1" transform="translate(168.000000, 5143.000000)">
                <g id="multiple" transform="translate(6.000000, 8.000000)">
                    <g id="Colour/Default-Colour">
                        <mask id="mask-2" fill="white">
                            <use xlink:href="#path-1"></use>
                        </mask>
                        <g id="Mask" fill-rule="nonzero"></g>
                        <g id="colour/neutral/chia" mask="url(#mask-2)" fill="#737373">
                            <g transform="translate(-18.000000, -20.250000)" id="Colour">
                                <rect x="0" y="0" width="48" height="48"></rect>
                            </g>
                        </g>
                    </g>
                </g>
            </g>
        </g>
    </g>
</svg>

<svg width="12" height="8" xmlns="http://www.w3.org/2000/svg" xmlns:xlink="http://www.w3.org/1999/xlink"><defs><path d="M8.625 4.5c1.339 0 2.28.531 2.822.962.354.28.553.712.553 1.165V7.5H8.25v-.873c0-.75-.281-1.445-.764-1.985A4.654 4.654 0 018.625 4.5zm-5.25 0c1.339 0 2.28.531 2.822.962.354.28.553.712.553 1.165V7.5H0v-.873c0-.453.199-.884.553-1.165A4.482 4.482 0 013.376 4.5zm0-4.5a1.875 1.875 0 110 3.75 1.875 1.875 0 010-3.75zm5.25 0a1.875 1.875 0 110 3.75 1.875 1.875 0 010-3.75z" id="people-1-12px_svg__a"/></defs><use fill="#737373" xlink:href="#people-1-12px_svg__a" fill-rule="evenodd"/></svg>
